;Generated by Cura LulzBot Edition GCodeWriter Version: 2.6.52
;FLAVOR:RepRap
;TIME:9928
;Filament used: 3.73061m
;Layer height: 0.425
;Generated with Cura_SteamEngine 2.6.52
;230110
M140 S110    ; start bed heating up
G21        ;metric values
G90        ;absolute positioning
M107       ;start with the fan off
G28 X0 Y0  ;move X/Y to min endstops
G28 Z0     ;move Z to min endstops
G1 Z15.0 F175 ;move the platform down 15mm
M117 Heating...                     ; progress indicator message on LCD
M104 S240 T0 ; set extruder temp
M104 S240 T1; set extruder temp
M109 R240 T0 ; set extruder temp and wait
M109 R240 T1; set extruder temp and wait
M190 S110    ; wait for bed to reach printing temp
T1                      ;Switch to the 2nd extruder
G92 E0                  ;zero the extruded length
G1 F100 E10             ;extrude 10mm of feed stock
G92 E0                  ;zero the extruded length again
G1 F200 E-0
T0                      ;Switch to the first extruder
G92 E0                  ;zero the extruded length
G1 F100 E10             ;extrude 10mm of feed stock
G92 E0                  ;zero the extruded length again
G1 F175
;Put printing message on LCD screen
M117 Printing...
;LAYER_COUNT:21
;LAYER:0
M107
G0 F8750 X76.356 Y52.191 Z0.425
;TYPE:SKIRT
G1 F600 X89.057 Y36.159 E0.81757
G1 X89.491 Y35.674 E0.84359
G1 X89.982 Y35.247 E0.8696
G1 X90.522 Y34.883 E0.89563
G1 X91.102 Y34.588 E0.92164
G1 X91.714 Y34.366 E0.94766
G1 X92.348 Y34.221 E0.97366
G1 X93.211 Y34.15 E1.00827
G1 X109.075 Y34.151 E1.64239
G1 X109.725 Y34.191 E1.66842
G1 X110.365 Y34.31 E1.69445
G1 X110.774 Y34.431 E1.71149
G1 X116.297 Y36.3 E1.94456
G1 X121.499 Y37.733 E2.16024
G1 X124.065 Y38.321 E2.26547
G1 X129.347 Y39.302 E2.48021
G1 X134.646 Y39.978 E2.69375
G1 X140.01 Y40.356 E2.90869
G1 X145.345 Y40.431 E3.12196
G1 X150.699 Y40.202 E3.33617
G1 X156.029 Y39.671 E3.55028
G1 X161.329 Y38.839 E3.76473
G1 X166.572 Y37.708 E3.97912
G1 X169.128 Y37.042 E4.0847
G1 X174.313 Y35.454 E4.30146
G1 X177.17 Y34.45 E4.42251
G1 X177.796 Y34.272 E4.44853
G1 X178.439 Y34.172 E4.47454
G1 X178.927 Y34.15 E4.49406
G1 X194.795 Y34.15 E5.12835
G1 X195.445 Y34.19 E5.15438
G1 X196.084 Y34.309 E5.18036
G1 X196.705 Y34.506 E5.2064
G1 X197.296 Y34.777 E5.23239
G1 X197.85 Y35.119 E5.25841
G1 X198.358 Y35.526 E5.28443
G1 X198.95 Y36.159 E5.31908
G1 X211.644 Y52.186 E6.13632
G1 X212.016 Y52.72 E6.16233
G1 X212.319 Y53.296 E6.18835
G1 X212.55 Y53.905 E6.21438
G1 X212.705 Y54.537 E6.24039
G1 X212.789 Y55.477 E6.27812
G1 X212.79 Y81.118 E7.30305
G1 X212.75 Y81.767 E7.32904
G1 X212.614 Y82.472 E7.35774
G1 X211.587 Y86.359 E7.51845
G1 X210.44 Y91.683 E7.73614
G1 X210.007 Y94.217 E7.8389
G1 X209.324 Y99.565 E8.05441
G1 X208.945 Y104.928 E8.26932
G1 X208.87 Y110.266 E8.48271
G1 X209.098 Y115.618 E8.69684
G1 X209.629 Y120.952 E8.9111
G1 X210.467 Y126.292 E9.12717
G1 X210.977 Y128.832 E9.23073
G1 X211.578 Y131.442 E9.33778
G1 X213.028 Y136.705 E9.556
G1 X213.577 Y138.438 E9.62866
G1 X213.736 Y139.069 E9.65467
G1 X213.825 Y140.039 E9.69361
G1 X213.825 Y165.714 E10.7199
G1 X213.785 Y166.364 E10.74593
G1 X213.666 Y167.003 E10.77192
G1 X213.469 Y167.624 E10.79796
G1 X213.198 Y168.215 E10.82395
G1 X212.68 Y169.004 E10.86167
G1 X199.968 Y185.057 E11.68018
G1 X199.533 Y185.542 E11.70622
G1 X199.043 Y185.969 E11.7322
G1 X198.503 Y186.333 E11.75823
G1 X197.923 Y186.629 E11.78426
G1 X197.311 Y186.851 E11.81028
G1 X196.677 Y186.996 E11.83628
G1 X195.813 Y187.067 E11.87093
G1 X179.913 Y187.068 E12.50649
G1 X179.264 Y187.028 E12.53248
G1 X178.624 Y186.909 E12.5585
G1 X178.142 Y186.763 E12.57863
G1 X175.323 Y185.764 E12.69818
G1 X170.157 Y184.182 E12.91415
G1 X164.902 Y182.893 E13.13043
G1 X162.297 Y182.37 E13.23663
G1 X159.733 Y181.932 E13.34061
G1 X154.38 Y181.247 E13.55633
G1 X149.018 Y180.867 E13.7712
G1 X143.68 Y180.791 E13.98459
G1 X138.326 Y181.019 E14.1988
G1 X132.998 Y181.547 E14.41281
G1 X127.667 Y182.383 E14.62851
G1 X125.085 Y182.901 E14.73378
G1 X122.509 Y183.493 E14.83943
G1 X117.294 Y184.929 E15.05564
G1 X111.778 Y186.789 E15.28833
G1 X111.15 Y186.959 E15.31434
G1 X110.505 Y187.05 E15.34037
G1 X110.085 Y187.067 E15.35718
G1 X94.188 Y187.067 E15.99262
G1 X93.538 Y187.027 E16.01865
G1 X92.899 Y186.908 E16.04463
G1 X92.278 Y186.711 E16.07067
G1 X91.687 Y186.44 E16.09666
G1 X91.133 Y186.098 E16.12268
G1 X90.625 Y185.691 E16.1487
G1 X90.033 Y185.058 E16.18335
G1 X77.32 Y169.008 E17.00178
G1 X76.948 Y168.474 E17.02779
G1 X76.645 Y167.898 E17.05381
G1 X76.414 Y167.29 E17.07981
G1 X76.259 Y166.657 E17.10586
G1 X76.175 Y165.717 E17.14358
G1 X76.175 Y140.039 E18.16999
G1 X76.215 Y139.389 E18.19603
G1 X76.353 Y138.678 E18.22498
G1 X77.413 Y134.69 E18.38992
G1 X78.019 Y132.063 E18.49769
G1 X78.532 Y129.501 E18.60213
G1 X79.369 Y124.167 E18.81795
G1 X79.9 Y118.834 E19.03218
G1 X80.128 Y113.482 E19.2463
G1 X80.053 Y108.143 E19.45974
G1 X79.674 Y102.781 E19.67461
G1 X78.997 Y97.482 E19.88814
G1 X78.011 Y92.177 E20.10383
G1 X77.431 Y89.648 E20.20754
G1 X75.981 Y84.38 E20.42595
G1 X75.457 Y82.723 E20.49541
G1 X75.299 Y82.092 E20.52142
G1 X75.21 Y81.125 E20.56023
G1 X75.21 Y55.482 E21.58525
G1 X75.25 Y54.832 E21.61128
G1 X75.369 Y54.193 E21.63726
G1 X75.566 Y53.572 E21.6633
G1 X75.837 Y52.981 E21.68929
G1 X76.356 Y52.191 E21.72707
G1 F600 E18.72707
G0 F8750 X82.08 Y52.417
G0 X82.16 Y52.42
G0 X93.784 Y52.88
G0 X93.864 Y52.884
G0 X95 Y52.93
;TYPE:SUPPORT
G1 F600 E21.72707
G1 X111.4 Y52.93 E22.38262
G1 X111.4 Y83.67 E23.61137
G1 X95 Y83.67 E24.26692
G1 X95 Y52.93 E25.49567
G0 F8750 X96 Y53.17
G1 F600 X96 Y83.43 E26.70524
G0 F8750 X95.24 Y80
G1 F600 X111.16 Y80 E27.3416
G0 F8750 X111.16 Y76
G1 F600 X95.24 Y76 E27.97796
G0 F8750 X95.24 Y72
G1 F600 X111.16 Y72 E28.61432
G0 F8750 X111.16 Y68
G1 F600 X95.24 Y68 E29.25068
G0 F8750 X95.24 Y64
G1 F600 X111.16 Y64 E29.88704
G0 F8750 X111.16 Y60
G1 F600 X95.24 Y60 E30.52341
G0 F8750 X95.24 Y56
G1 F600 X111.16 Y56 E31.15977
G0 F8750 X108 Y53.17
G1 F600 X108 Y83.43 E32.36933
G0 F8750 X104 Y83.43
G1 F600 X104 Y53.17 E33.5789
G0 F8750 X100 Y53.17
G1 F600 X100 Y83.43 E34.78846
G1 F600 E31.78846
G0 F8750 X112.535 Y83.468
G0 X112.615 Y83.469
G0 X126.317 Y83.512
G0 X131.259 Y79.449
G0 X133.416 Y81.643
G0 X133.774 Y81.791
G0 X154.226 Y81.791
G0 X154.584 Y81.643
G0 X156.741 Y79.449
G0 X161.815 Y83.623
G0 X175.383 Y83.665
G0 X175.463 Y83.666
G0 X176.6 Y83.67
G1 F600 E34.78846
G1 X176.6 Y52.93 E36.01722
G1 X193 Y52.93 E36.67276
G1 X193 Y83.67 E37.90152
G1 X176.6 Y83.67 E38.55707
G0 F8750 X180 Y83.43
G1 F600 X180 Y53.17 E39.76663
G0 F8750 X184 Y53.17
G1 F600 X184 Y83.43 E40.9762
G0 F8750 X188 Y83.43
G1 F600 X188 Y53.17 E42.18576
G0 F8750 X192 Y53.17
G1 F600 X192 Y83.43 E43.39533
G0 F8750 X192.76 Y80
G1 F600 X176.84 Y80 E44.03169
G0 F8750 X176.84 Y76
G1 F600 X192.76 Y76 E44.66805
G0 F8750 X192.76 Y72
G1 F600 X176.84 Y72 E45.30441
G0 F8750 X176.84 Y68
G1 F600 X192.76 Y68 E45.94077
G0 F8750 X192.76 Y64
G1 F600 X176.84 Y64 E46.57713
G0 F8750 X176.84 Y60
G1 F600 X192.76 Y60 E47.2135
G0 F8750 X192.76 Y56
G1 F600 X176.84 Y56 E47.84986
G1 F600 E44.84986
G0 F8750 X175.465 Y56
G0 X173.9 Y56
G0 X173.899 Y55.947
G0 X173.83 Y50.16
G0 X173.9 Y50.23
;TYPE:WALL-INNER
G1 F600 E47.84986
G1 X173.9 Y86.37 E49.29446
G1 X195.7 Y86.37 E50.16586
G1 X195.7 Y50.23 E51.61046
G1 X173.9 Y50.23 E52.48186
G0 F8750 X173.83 Y50.16
G0 X179.286 Y40.433
G0 X179.252 Y40.34
G1 F600 X194.365 Y40.34 E53.08597
G1 X206.6 Y55.786 E53.87361
G1 X206.6 Y80.814 E54.87404
G1 X194.365 Y96.261 E55.66171
G1 X179.252 Y96.261 E56.26582
G1 X156.643 Y77.341 E57.44425
G1 X153.785 Y80.227 E57.6066
G1 X134.215 Y80.227 E58.38886
G1 X131.357 Y77.341 E58.55122
G1 X108.748 Y96.261 E59.72965
G1 X93.635 Y96.261 E60.33375
G1 X81.4 Y80.814 E61.12143
G1 X81.4 Y55.786 E62.12186
G1 X93.635 Y40.34 E62.9095
G1 X108.748 Y40.34 E63.5136
G1 X131.357 Y59.26 E64.69203
G1 X134.215 Y56.373 E64.85442
G1 X153.785 Y56.373 E65.63668
G1 X156.643 Y59.26 E65.79906
G1 X179.252 Y40.34 E66.97749
G0 F8750 X179.286 Y40.433
G0 X156.642 Y59.299
G0 X131.358 Y59.299
G0 X114.17 Y50.16
G0 X114.1 Y50.23
G1 F600 X92.3 Y50.23 E67.84889
G1 X92.3 Y86.37 E69.29349
G1 X114.1 Y86.37 E70.16489
G1 X114.1 Y50.23 E71.6095
G0 F8750 X113.5 Y50.83
;TYPE:WALL-OUTER
G1 F600 X92.9 Y50.83 E72.43293
G1 X92.9 Y85.77 E73.82956
G1 X113.5 Y85.77 E74.653
G1 X113.5 Y50.83 E76.04963
G0 F8750 X113.2 Y50.83
G0 X113.2 Y50.13
G0 X108.714 Y40.433
G0 X108.966 Y39.74
G1 F600 X131.319 Y58.446 E77.21473
G1 X133.965 Y55.773 E77.36507
G1 X154.035 Y55.773 E78.16731
G1 X156.681 Y58.446 E78.31766
G1 X179.034 Y39.74 E79.48275
G1 X194.655 Y39.74 E80.10716
G1 X207.2 Y55.577 E80.91475
G1 X207.2 Y81.023 E81.93189
G1 X194.655 Y96.861 E82.73951
G1 X179.034 Y96.861 E83.36392
G1 X156.681 Y78.155 E84.52901
G1 X154.035 Y80.827 E84.67932
G1 X133.965 Y80.827 E85.48157
G1 X131.319 Y78.155 E85.63188
G1 X108.966 Y96.861 E86.79698
G1 X93.345 Y96.861 E87.42139
G1 X80.8 Y81.023 E88.22901
G1 X80.8 Y55.577 E89.24614
G1 X93.345 Y39.74 E90.05373
G1 X108.966 Y39.74 E90.67814
G0 F8750 X109.196 Y39.932
G0 X108.746 Y40.467
G0 X131.358 Y59.299
G0 X156.642 Y59.299
G0 X173.8 Y50.83
G0 X174.5 Y50.83
G1 F600 X174.5 Y85.77 E92.07478
G1 X195.1 Y85.77 E92.89821
G1 X195.1 Y50.83 E94.29485
G1 X174.5 Y50.83 E95.11828
G0 F8750 X174.5 Y51.13
G0 X173.629 Y51.441
;TYPE:SKIN
G1 F600 X170.339 Y48.151 E95.30426
G1 X170.233 Y48.045
G0 F8750 X170.8 Y47.764
G1 F600 X173.629 Y50.592 E95.46416
G1 X173.735 Y50.698
G0 F8750 X173.845 Y49.959
G1 F600 X171.262 Y47.377 E95.61014
G1 X171.156 Y47.271
G0 F8750 X171.725 Y46.991
G1 F600 X174.693 Y49.959 E95.77792
G1 X174.799 Y50.065
G0 F8750 X175.542 Y49.959
G1 F600 X172.186 Y46.604 E95.96761
G1 X172.08 Y46.498
G0 F8750 X172.648 Y46.217
G1 F600 X176.39 Y49.959 E96.17914
G1 X176.496 Y50.065
G0 F8750 X177.239 Y49.959
G1 F600 X173.111 Y45.831 E96.4125
G1 X173.005 Y45.725
G0 F8750 X173.572 Y45.445
G1 F600 X178.087 Y49.959 E96.6677
G1 X178.193 Y50.065
G0 F8750 X178.936 Y49.959
G1 F600 X174.034 Y45.058 E96.94478
G1 X173.928 Y44.952
G0 F8750 X174.496 Y44.672
G1 F600 X179.784 Y49.959 E97.24368
G1 X179.89 Y50.065
G0 F8750 X180.633 Y49.959
G1 F600 X174.958 Y44.285 E97.56446
G1 X174.852 Y44.179
G0 F8750 X175.42 Y43.898
G1 F600 X181.481 Y49.959 E97.90708
G1 X181.587 Y50.065
G0 F8750 X182.33 Y49.959
G1 F600 X175.882 Y43.511 E98.27158
G1 X175.776 Y43.405
G0 F8750 X176.344 Y43.125
G1 F600 X183.178 Y49.959 E98.65791
G1 X183.284 Y50.065
G0 F8750 X184.027 Y49.959
G1 F600 X176.806 Y42.738 E99.06611
G1 X176.7 Y42.632
G0 F8750 X177.268 Y42.352
G1 F600 X184.875 Y49.959 E99.49613
G1 X184.981 Y50.065
G0 F8750 X185.724 Y49.959
G1 F600 X177.73 Y41.966 E99.948
G1 X177.624 Y41.86
G0 F8750 X178.192 Y41.579
G1 F600 X186.572 Y49.959 E100.42171
G1 X186.678 Y50.065
G0 F8750 X187.421 Y49.959
G1 F600 X178.654 Y41.192 E100.91731
G1 X178.548 Y41.086
G0 F8750 X179.116 Y40.806
G1 F600 X188.27 Y49.959 E101.43475
G1 X188.376 Y50.065
G0 F8750 X189.118 Y49.959
G1 F600 X179.769 Y40.61 E101.96325
G1 X179.663 Y40.504
G0 F8750 X180.617 Y40.61
G1 F600 X189.967 Y49.959 E102.49177
G1 X190.073 Y50.065
G0 F8750 X190.815 Y49.959
G1 F600 X181.466 Y40.61 E103.02026
G1 X181.36 Y40.504
G0 F8750 X182.314 Y40.61
G1 F600 X191.664 Y49.959 E103.54879
G1 X191.77 Y50.065
G0 F8750 X192.512 Y49.959
G1 F600 X183.163 Y40.61 E104.07728
G1 X183.057 Y40.504
G0 F8750 X184.011 Y40.61
G1 F600 X193.361 Y49.959 E104.60581
G1 X193.467 Y50.065
G0 F8750 X194.209 Y49.959
G1 F600 X184.86 Y40.61 E105.1343
G1 X184.754 Y40.504
G0 F8750 X185.708 Y40.61
G1 F600 X195.058 Y49.959 E105.66282
G1 X195.164 Y50.065
G0 F8750 X195.906 Y49.959
G1 F600 X186.557 Y40.61 E106.19132
G1 X186.451 Y40.504
G0 F8750 X187.405 Y40.61
G1 F600 X206.329 Y59.534 E107.26108
G1 X206.435 Y59.64
G0 F8750 X206.329 Y60.382
G1 F600 X195.968 Y50.022 E107.84676
G1 X195.862 Y49.916
G0 F8750 X195.968 Y50.87
G1 F600 X206.329 Y61.231 E108.43246
G1 X206.435 Y61.337
G0 F8750 X206.329 Y62.079
G1 F600 X195.968 Y51.719 E109.01814
G1 X195.862 Y51.613
G0 F8750 X195.968 Y52.567
G1 F600 X206.329 Y62.928 E109.60384
G1 X206.435 Y63.034
G0 F8750 X206.329 Y63.776
G1 F600 X195.968 Y53.416 E110.18951
G1 X195.862 Y53.31
G0 F8750 X195.968 Y54.264
G1 F600 X206.329 Y64.625 E110.77522
G1 X206.435 Y64.731
G0 F8750 X206.329 Y65.473
G1 F600 X195.968 Y55.113 E111.36089
G1 X195.862 Y55.007
G0 F8750 X195.968 Y55.961
G1 F600 X206.329 Y66.322 E111.94659
G1 X206.435 Y66.428
G0 F8750 X206.329 Y67.17
G1 F600 X195.968 Y56.81 E112.53227
G1 X195.862 Y56.704
G0 F8750 X195.968 Y57.658
G1 F600 X206.329 Y68.019 E113.11797
G1 X206.435 Y68.125
G0 F8750 X206.329 Y68.867
G1 F600 X195.968 Y58.507 E113.70364
G1 X195.862 Y58.401
G0 F8750 X195.968 Y59.355
G1 F600 X206.329 Y69.716 E114.28935
G1 X206.435 Y69.822
G0 F8750 X206.329 Y70.565
G1 F600 X195.968 Y60.204 E114.87505
G1 X195.862 Y60.098
G0 F8750 X195.968 Y61.053
G1 F600 X206.329 Y71.413 E115.46072
G1 X206.435 Y71.519
G0 F8750 X206.329 Y72.262
G1 F600 X195.968 Y61.901 E116.04643
G1 X195.862 Y61.795
G0 F8750 X195.968 Y62.75
G1 F600 X206.329 Y73.11 E116.6321
G1 X206.435 Y73.216
G0 F8750 X206.329 Y73.959
G1 F600 X195.968 Y63.598 E117.2178
G1 X195.862 Y63.492
G0 F8750 X195.968 Y64.447
G1 F600 X206.329 Y74.807 E117.80348
G1 X206.435 Y74.913
G0 F8750 X206.329 Y75.656
G1 F600 X195.968 Y65.295 E118.38918
G1 X195.862 Y65.189
G0 F8750 X195.968 Y66.144
G1 F600 X206.329 Y76.504 E118.97486
G1 X206.435 Y76.61
G0 F8750 X206.329 Y77.353
G1 F600 X195.968 Y66.992 E119.56056
G1 X195.862 Y66.886
G0 F8750 X195.968 Y67.841
G1 F600 X206.329 Y78.201 E120.14623
G1 X206.435 Y78.307
G0 F8750 X206.329 Y79.05
G1 F600 X195.968 Y68.689 E120.73194
G1 X195.862 Y68.583
G0 F8750 X195.968 Y69.538
G1 F600 X206.329 Y79.898 E121.31761
G1 X206.435 Y80.004
G0 F8750 X206.318 Y80.736
G1 F600 X195.968 Y70.386 E121.90269
G1 X195.862 Y70.28
G0 F8750 X195.968 Y71.235
G1 F600 X205.942 Y81.209 E122.46652
G1 X206.048 Y81.315
G0 F8750 X205.567 Y81.682
G1 F600 X195.968 Y72.083 E123.00914
G1 X195.862 Y71.977
G0 F8750 X195.968 Y72.932
G1 F600 X205.193 Y82.156 E123.5306
G1 X205.299 Y82.262
G0 F8750 X204.817 Y82.629
G1 F600 X195.968 Y73.78 E124.03083
G1 X195.862 Y73.674
G0 F8750 X195.968 Y74.629
G1 F600 X204.442 Y83.103 E124.50986
G1 X204.548 Y83.209
G0 F8750 X204.067 Y83.576
G1 F600 X195.968 Y75.477 E124.9677
G1 X195.862 Y75.371
G0 F8750 X195.968 Y76.326
G1 F600 X203.692 Y84.05 E125.40433
G1 X203.798 Y84.156
G0 F8750 X203.317 Y84.524
G1 F600 X195.968 Y77.175 E125.81977
G1 X195.862 Y77.069
G0 F8750 X195.968 Y78.023
G1 F600 X202.942 Y84.997 E126.214
G1 X203.048 Y85.103
G0 F8750 X202.567 Y85.47
G1 F600 X195.968 Y78.872 E126.58701
G1 X195.862 Y78.766
G0 F8750 X195.968 Y79.72
G1 F600 X202.192 Y85.943 E126.93882
G1 X202.298 Y86.049
G0 F8750 X201.817 Y86.417
G1 F600 X195.968 Y80.569 E127.26944
G1 X195.862 Y80.463
G0 F8750 X195.968 Y81.417
G1 F600 X201.442 Y86.891 E127.57888
G1 X201.548 Y86.997
G0 F8750 X201.067 Y87.364
G1 F600 X195.968 Y82.266 E127.8671
G1 X195.862 Y82.16
G0 F8750 X195.968 Y83.114
G1 F600 X200.692 Y87.838 E128.13414
G1 X200.798 Y87.944
G0 F8750 X200.316 Y88.311
G1 F600 X195.968 Y83.963 E128.37993
G1 X195.862 Y83.857
G0 F8750 X195.968 Y84.811
G1 F600 X199.942 Y88.785 E128.60458
G1 X200.048 Y88.891
G0 F8750 X199.567 Y89.258
G1 F600 X195.968 Y85.66 E128.808
G1 X195.862 Y85.554
G0 F8750 X195.968 Y86.508
G1 F600 X199.191 Y89.731 E128.9902
G1 X199.297 Y89.837
G0 F8750 X198.817 Y90.205
G1 F600 X195.251 Y86.64 E129.19175
G1 X195.145 Y86.534
G0 F8750 X194.403 Y86.64
G1 F600 X198.441 Y90.678 E129.42002
G1 X198.547 Y90.784
G0 F8750 X198.066 Y91.152
G1 F600 X193.554 Y86.64 E129.67508
G1 X193.448 Y86.534
G0 F8750 X192.706 Y86.64
G1 F600 X197.692 Y91.626 E129.95694
G1 X197.798 Y91.732
G0 F8750 X197.316 Y92.099
G1 F600 X191.857 Y86.64 E130.26553
G1 X191.751 Y86.534
G0 F8750 X191.009 Y86.64
G1 F600 X196.941 Y92.573 E130.60089
G1 X197.047 Y92.679
G0 F8750 X196.567 Y93.046
G1 F600 X190.16 Y86.64 E130.96305
G1 X190.054 Y86.534
G0 F8750 X189.312 Y86.64
G1 F600 X196.191 Y93.519 E131.35192
G1 X196.297 Y93.625
G0 F8750 X195.816 Y93.993
G1 F600 X188.463 Y86.64 E131.76758
G1 X188.357 Y86.534
G0 F8750 X187.615 Y86.64
G1 F600 X195.441 Y94.466 E132.20998
G1 X195.547 Y94.572
